X: 36498
T: Serena Notte
R: barndance
M: 4/4
K: Amajor
|:c4 cB/c/ d>G|A4 A4|c4 cB/c/ d>G|A4 A4|
d4 dAAB|c4 ce (3edc|B4 Bc d>G|A4 A4:|
|:f4 fgaf|e4 eagf|e2 ea gabg|a4 ae ag|
f4 fgaf|e4 eagf|e2 ea gabg|a4 a4:|

